X: 28893
T: Mystic Flames Of Boitatá, The
R: reel
M: 4/4
K: Eminor
e2ed cABG|EAGE cAAA|eeed cABd|eged cAAA|
e2ed cABG|EAAA BGBd|cABd edBG|1 BAGA A4:|2 BAGA ABcd||
eage a2ge|gedB AAAd|eage a2ge|gede e3d|
eage a2ge|ggga bged|cBcd edBG|BAGA ABcd|
eage a2ge|gedB AAAd|eage a2ge|bage e3d|
eage a2ge|ggga bged|cBcd edBG|BAGA A4||

